X: 1
T: Hummle Doddies
C: Adam Allardyce
R: reel
Z: 2018 John Chambers <jc:trillian.mit.edu>
B: RSCDS "Originally Ours"
M: C|
L: 1/8
K: A
(3e/f/g/ |\
"A"a2ec A2cA | "E"GABc B2GF | E2ef "E7"g2fg | "A"agfa fecA | "A"a2ec A2cA |
"E"GABc B2fg | "A"a2ga fecA | "E7"GABc "A"A3 |] e | "A"cece "D"fefa | "A"ceec "E7"B3g |
"A"a2ga fecA | "E7"GABc "A"A2e2 | "A"cece "D"fefa | "A"ceec "E7"B3g | "A(D)"agfa "A"fecA | "E7"GABc "A"A3 |]
